X:1
T:Title
%%score 1 2
L:1/8
Q:1/4=93
M:4/4
K:Eb
V:1 treble nm="Grand Piano, Soprano"
V:2 bass nm="Choir Pad, No More Good-Byes, 1884"
V:1
 E>[EF] [EG]>[EF] E>[EF] [EG]2 | [EG]>[FA] [GB]>[FA] [EG]>[FA] [GB]2 | %2
w: By~Eden~Reeder~Latta * * * * * *||
 [GB]>[GB] [Ac]>[Bd] [ce]>[Ac] [GB]>[EG] | [DF]E [EG]2 [DF]2 [DF]2 | %4
w: ||
 E>[EF] [EG]>[EF] E>[EF] [EG]2 | [EG]>[FA] [GB]>[FA] [EG]>[FA] [GB]2 | %6
w: ||
 [GB]>[GB] [Ac]>[Bd] [ce]>[Ac] [GB]>[EG] | [DF]E [EG]2 [DF]2 E[GB] | [FA]>[EG] [DF]4- [DF][Ac] | %9
w: |||
 [GB]>[FA] [EG]4- [EG][GB] | [FA]>[EG] [DF]4- [DF][Fe] | [Fd]>[Ec] [DB]6 | %12
w: |||
 E>[EF] [EG]>[EF] E>[EF] [EG]2 | [EG]>[FA] [GB]>[FA] [EG]>[FA] [GB]2 | %14
w: ||
 [GB]>[GB] [Ac]>[Bd] [ce]>[Ac] [GB]>[EG] | [DF]E [EG]2 [DF]2 E2- | E6 z2 |] %17
w: |||
V:2
 [E,G,]>[E,A,] [E,A,]>[E,A,] [E,G,]>[E,A,] [E,B,]2 | %1
 [E,B,]>[E,B,] [E,B,]>[E,B,] [E,B,]>[E,B,] [E,E]2 | %2
 [E,E]>[E,E] [A,E]>[A,E] [A,E]>[A,E] [E,E]>[E,B,] | [E,A,][E,G,] [B,,B,]2 [B,,B,]2 [B,,B,]2 | %4
 [E,G,]>[E,A,] [E,B,]>[E,A,] [E,G,]>[E,A,] [E,B,]2 | %5
 [E,B,]>[E,B,] [E,B,]>[E,B,] [E,B,]>[E,B,] [E,E]2 | %6
 [E,E]>[E,E] [A,E]>[A,E] [A,E]>[A,E] [E,E]>[E,B,] | [E,A,][E,G,] [B,,B,]2 [B,,A,]2 .[E,G,]2 | %8
 z2 z [B,,B,] [B,,B,]>[B,,B,] [B,,B,]2 | z2 z [E,B,] [E,B,]>[E,B,] [E,B,]2 | %10
 z2 z [F,B,] [F,B,]>[F,B,] [F,B,][F,C] | [F,B,]>[F,=A,] [B,,B,]6 | %12
 [E,G,]>[E,A,] [E,B,]>[E,A,] [E,G,]>[E,A,] [E,B,]2 | %13
 [E,B,]>[E,B,] [E,B,]>[E,B,] [E,B,]>[E,B,] [E,E]2 | %14
 [E,E]>[E,E] [A,E]>[A,E] [A,E]>[A,E] [E,E]>[E,B,] | [E,A,][E,G,] [B,,B,]2 [B,,A,]2 [E,G,]2- | %16
 [E,G,]6 z2 |] %17

